build/img/svg-sprite/contract.svg

<svg width="75" height="75" viewBox="0 0 75 75" fill="none" xmlns="http://www.w3.org/2000/svg">
<g clip-path="url(#clip0)">
<path d="M74.8622 17.7848C74.6041 16.8248 73.9743 16.0065 73.1126 15.5104C72.2503 15.0118 71.2251 14.8769 70.2634 15.1351C69.3028 15.3938 68.4845 16.023 67.9884 16.8846L67.3635 17.9721C66.7697 17.631 66.0112 17.8317 65.6639 18.4225L62.4894 23.8335L61.402 23.2086C61.1139 23.042 60.771 22.9969 60.45 23.0835C60.1284 23.1708 59.855 23.3819 59.6896 23.6712C59.3509 24.2686 59.5572 25.0278 60.1522 25.3707L61.2396 25.9956L50.6164 44.405L47.9918 51.4167L46.742 53.7534C46.0103 55.0263 46.0884 56.6087 46.9421 57.803L44.1301 61.2521L43.3429 59.2779C42.9877 58.398 42.1657 57.795 41.2205 57.7212C40.2746 57.6467 39.3684 58.1142 38.8808 58.9276L38.431 59.6898L38.0063 54.6907C37.9087 53.508 36.9927 52.5573 35.8149 52.4145C34.6365 52.2723 33.521 52.9783 33.1445 54.1036L30.07 63.3269C29.8552 63.9793 30.2067 64.6823 30.8572 64.902C30.9793 64.9587 31.1105 64.9929 31.2448 65.0014C31.7818 65.0033 32.2602 64.6609 32.4323 64.152L35.4939 54.9287L35.9315 60.0023C36.0218 61.0849 36.7998 61.985 37.858 62.2303C38.9162 62.4756 40.011 62.0094 40.5681 61.0775L41.0307 60.3147L41.8057 62.2773C42.1346 63.1042 42.8785 63.6943 43.7591 63.8255C44.6397 63.9567 45.5233 63.6095 46.0799 62.9144L48.992 59.2279C49.3142 59.3121 49.6462 59.3542 49.9794 59.353C51.3188 59.3634 52.5625 58.6579 53.2411 57.5027L54.4909 55.4157L59.2527 49.6293L69.9881 30.9948L71.0756 31.6197C71.3655 31.7857 71.5766 32.0597 71.6627 32.3825C71.7493 32.7029 71.7042 33.0446 71.5382 33.332L66.539 41.9933C66.3505 42.2777 66.2864 42.6267 66.3621 42.9599C66.4377 43.2925 66.6458 43.5799 66.9387 43.7551C67.2268 43.9223 67.5697 43.9674 67.8907 43.8808C68.2123 43.7935 68.4857 43.5824 68.6511 43.2931L73.6502 34.6319C74.1488 33.7696 74.2837 32.7444 74.0249 31.7826C73.7662 30.8221 73.137 30.0037 72.2754 29.5076L71.1879 28.8827L74.3124 23.471C74.6535 22.8773 74.4527 22.1193 73.8626 21.7715L74.4875 20.684C74.9995 19.8083 75.135 18.7624 74.8622 17.7848ZM70.1505 18.1344C70.3158 17.8452 70.5905 17.6334 70.9133 17.5474C71.2343 17.468 71.5736 17.5126 71.8628 17.6725C72.1527 17.8378 72.3638 18.1125 72.4505 18.4347C72.5298 18.7557 72.4853 19.095 72.3254 19.3842L71.7005 20.4717L69.5256 19.2219L70.1505 18.1344ZM53.116 53.029L52.4911 52.6665L50.6415 51.5913L52.4161 46.8423L56.3528 49.1167L53.116 53.029ZM49.3667 56.6404C48.8388 56.2725 48.6765 55.5646 48.992 55.0031L49.6169 53.9163L51.7912 55.1661L51.1663 56.2407C50.9911 56.5446 50.697 56.7607 50.3547 56.8369C50.0123 56.9126 49.6541 56.8418 49.3667 56.6404ZM57.7777 47.0675L53.4535 44.5679L63.4518 27.2454L67.776 29.745L57.7777 47.0675ZM69.0258 27.5829L64.7016 25.0833L67.2011 20.7591L71.5254 23.2587L69.0258 27.5829Z" fill="#EF8B54"/>
<path d="M19.7214 56.0156L15.2977 60.4277L12.648 57.778C12.1604 57.2934 11.3732 57.2934 10.8856 57.778C10.6488 58.0129 10.5158 58.3321 10.5158 58.6653C10.5158 58.9985 10.6488 59.3182 10.8856 59.5526L13.5353 62.2023C14.004 62.6673 14.6374 62.9278 15.2977 62.9272C15.9617 62.9309 16.6006 62.6703 17.0723 62.2023L21.4838 57.778C21.9085 57.2818 21.8798 56.5428 21.4185 56.0815C20.9565 55.6195 20.2175 55.5909 19.7214 56.0156Z" fill="#EF8B54"/>
<path d="M4.99908 59.3775C4.99908 65.245 9.75536 70.0007 15.6223 70.0007C21.4892 70.0007 26.2455 65.245 26.2455 59.3775C26.2455 58.6873 25.6859 58.1277 24.9957 58.1277C24.3055 58.1277 23.7459 58.6873 23.7459 59.3775C23.7459 63.864 20.1088 67.5011 15.6223 67.5011C11.1357 67.5011 7.49866 63.864 7.49866 59.3775C7.49866 54.891 11.1357 51.2539 15.6223 51.2539C17.381 51.249 19.0928 51.8196 20.4963 52.879C21.0486 53.2933 21.8322 53.181 22.2459 52.6288C22.6603 52.0765 22.5486 51.2935 21.9963 50.8792C18.7773 48.465 14.4701 48.0769 10.8715 49.8759C7.27226 51.6756 4.99908 55.3541 4.99908 59.3775Z" fill="#EF8B54"/>
<path d="M44.9923 10.0108C45.6825 10.0108 46.2421 9.45182 46.2421 8.76102C46.2421 8.07083 45.6825 7.51123 44.9923 7.51123H12.4978C11.8076 7.51123 11.248 8.07083 11.248 8.76102V13.7602C11.248 14.451 11.8076 15.01 12.4978 15.01H44.9923C45.6825 15.01 46.2421 14.451 46.2421 13.7602C46.2421 13.07 45.6825 12.5104 44.9923 12.5104H13.7476V10.0108H44.9923Z" fill="#EF8B54"/>
<path d="M16.2472 17.5095C15.557 17.5095 14.9974 18.0691 14.9974 18.7593C14.9974 19.4501 15.557 20.0091 16.2472 20.0091H41.243C41.9332 20.0091 42.4928 19.4501 42.4928 18.7593C42.4928 18.0691 41.9332 17.5095 41.243 17.5095H16.2472Z" fill="#EF8B54"/>
<path d="M48.7416 26.2581H21.2463C20.5561 26.2581 19.9965 26.8177 19.9965 27.5078C19.9965 28.1987 20.5561 28.7576 21.2463 28.7576H48.7416C49.4318 28.7576 49.9914 28.1987 49.9914 27.5078C49.9914 26.8177 49.4318 26.2581 48.7416 26.2581Z" fill="#EF8B54"/>
<path d="M36.2438 35.0066C36.2438 34.3164 35.6842 33.7568 34.994 33.7568H9.99829C9.3081 33.7568 8.7485 34.3164 8.7485 35.0066C8.7485 35.6974 9.3081 36.2564 9.99829 36.2564H34.994C35.6842 36.2564 36.2438 35.6974 36.2438 35.0066Z" fill="#EF8B54"/>
<path d="M48.7417 33.7568H39.9932C39.303 33.7568 38.7434 34.3164 38.7434 35.0066C38.7434 35.6974 39.303 36.2564 39.9932 36.2564H48.7417C49.4319 36.2564 49.9915 35.6974 49.9915 35.0066C49.9915 34.3164 49.4319 33.7568 48.7417 33.7568Z" fill="#EF8B54"/>
<path d="M22.4962 42.5052C23.1864 42.5052 23.7459 41.9462 23.7459 41.2554C23.7459 40.5652 23.1864 40.0056 22.4962 40.0056H9.99829C9.3081 40.0056 8.7485 40.5652 8.7485 41.2554C8.7485 41.9462 9.3081 42.5052 9.99829 42.5052H22.4962Z" fill="#EF8B54"/>
<path d="M27.4953 42.5052H36.2438C36.934 42.5052 37.4936 41.9462 37.4936 41.2554C37.4936 40.5652 36.934 40.0056 36.2438 40.0056H27.4953C26.8051 40.0056 26.2455 40.5652 26.2455 41.2554C26.2455 41.9462 26.8051 42.5052 27.4953 42.5052Z" fill="#EF8B54"/>
<path d="M56.2404 57.5027C55.5502 57.5027 54.9906 58.0623 54.9906 58.7524V71.2503C54.9906 71.9411 54.431 72.5001 53.7408 72.5001H3.74936C3.05917 72.5001 2.49957 71.9411 2.49957 71.2503V3.76181C2.49957 3.07162 3.05917 2.51203 3.74936 2.51203H53.7408C54.431 2.51203 54.9906 3.07162 54.9906 3.76181V27.2332C54.9906 27.9233 55.5502 28.4829 56.2404 28.4829C56.9306 28.4829 57.4902 27.9233 57.4902 27.2332V3.76181C57.4902 1.69124 55.8114 0.0124512 53.7408 0.0124512H3.74936C1.67879 0.0124512 0 1.69124 0 3.76181V71.2503C0 73.3215 1.67879 74.9997 3.74936 74.9997H53.7408C55.8114 74.9997 57.4902 73.3215 57.4902 71.2503V58.7524C57.4902 58.0623 56.9306 57.5027 56.2404 57.5027Z" fill="#EF8B54"/>
</g>
<defs>
<clipPath id="clip0">
<rect width="75" height="75" fill="white"/>
</clipPath>
</defs>
</svg>

<svg width="75" height="75" viewBox="0 0 75 75" fill="none" xmlns="http://www.w3.org/2000/svg"><g clip-path="url(#clip0)" fill="#EF8B54"><path d="M74.862 17.785a3.748 3.748 0 00-1.75-2.275 3.75 3.75 0 00-5.124 1.375l-.624 1.087a1.25 1.25 0 00-1.7.45l-3.175 5.412-1.087-.625a1.251 1.251 0 00-1.712.462 1.25 1.25 0 00.462 1.7l1.088.625-10.624 18.409-2.624 7.012-1.25 2.336a3.75 3.75 0 00.2 4.05l-2.812 3.45-.787-1.975a2.499 2.499 0 00-4.462-.35l-.45.762-.425-5a2.5 2.5 0 00-4.861-.586l-3.075 9.223a1.25 1.25 0 00.787 1.575c.122.057.253.09.388.1a1.25 1.25 0 001.187-.85l3.062-9.223.438 5.073a2.5 2.5 0 004.636 1.075l.463-.762.775 1.962a2.499 2.499 0 004.274.637l2.912-3.686c.322.084.654.126.987.125a3.75 3.75 0 003.262-1.85l1.25-2.087 4.762-5.787 10.735-18.634 1.088.625a1.25 1.25 0 01.462 1.712l-4.999 8.661a1.248 1.248 0 00.4 1.762 1.249 1.249 0 001.712-.462l5-8.661a3.747 3.747 0 00-1.376-5.124l-1.087-.625 3.124-5.412a1.25 1.25 0 00-.45-1.7l.626-1.087a3.748 3.748 0 00.374-2.9zm-4.712.35c.166-.29.44-.502.763-.588a1.32 1.32 0 01.95.125c.29.166.5.44.588.763.079.32.034.66-.126.95l-.624 1.087-2.175-1.25.624-1.088zM53.116 53.028l-.625-.363-1.85-1.075 1.775-4.749 3.937 2.275-3.237 3.912zm-3.75 3.611a1.249 1.249 0 01-.374-1.637l.625-1.087 2.174 1.25-.625 1.075a1.25 1.25 0 01-1.8.4zm8.412-9.572l-4.325-2.5 9.999-17.323 4.324 2.5-9.998 17.323zm11.248-19.485l-4.324-2.5 2.5-4.324 4.323 2.5-2.5 4.324zM19.721 56.016l-4.423 4.412-2.65-2.65a1.25 1.25 0 10-1.762 1.775l2.65 2.65a2.499 2.499 0 001.762.724 2.5 2.5 0 001.774-.725l4.412-4.424a1.25 1.25 0 00-1.763-1.762z"/><path d="M5 59.377c0 5.868 4.755 10.624 10.622 10.624s10.623-4.756 10.623-10.624a1.25 1.25 0 00-2.5 0 8.124 8.124 0 11-8.123-8.123 8.053 8.053 0 014.874 1.625 1.25 1.25 0 101.5-2A10.625 10.625 0 005 59.377zM44.992 10.01a1.25 1.25 0 100-2.499H12.498c-.69 0-1.25.56-1.25 1.25v5c0 .69.56 1.249 1.25 1.249h32.494a1.25 1.25 0 100-2.5H13.748v-2.5h31.244zm-28.745 7.5a1.25 1.25 0 000 2.5h24.996a1.25 1.25 0 100-2.5H16.247zm32.495 8.748H21.246a1.25 1.25 0 000 2.5h27.496a1.25 1.25 0 100-2.5zm-12.498 8.749c0-.69-.56-1.25-1.25-1.25H9.998a1.25 1.25 0 000 2.5h24.996c.69 0 1.25-.56 1.25-1.25zm12.498-1.25h-8.749a1.25 1.25 0 000 2.5h8.749a1.25 1.25 0 100-2.5zm-26.246 8.748a1.25 1.25 0 100-2.5H9.998a1.25 1.25 0 000 2.5h12.498zm4.999 0h8.749a1.25 1.25 0 100-2.5h-8.749a1.25 1.25 0 000 2.5z"/><path d="M56.24 57.503c-.69 0-1.25.56-1.25 1.25V71.25a1.25 1.25 0 01-1.25 1.25H3.75a1.25 1.25 0 01-1.25-1.25V3.762c0-.69.56-1.25 1.25-1.25h49.99c.691 0 1.25.56 1.25 1.25v23.471a1.25 1.25 0 002.5 0V3.762a3.75 3.75 0 00-3.75-3.75H3.75A3.75 3.75 0 000 3.762V71.25A3.75 3.75 0 003.75 75h49.99a3.75 3.75 0 003.75-3.75V58.752c0-.69-.56-1.25-1.25-1.25z"/></g><defs><clipPath id="clip0"><path fill="#fff" d="M0 0h75v75H0z"/></clipPath></defs></svg>
